Sweet-Rainbow/icons/korganizer.svg

<?xml version="1.0" encoding="UTF-8" standalone="no"?>
<!-- Generator: Gravit.io -->

<svg
   xmlns:dc="http://purl.org/dc/elements/1.1/"
   xmlns:cc="http://creativecommons.org/ns#"
   xmlns:rdf="http://www.w3.org/1999/02/22-rdf-syntax-ns#"
   xmlns:svg="http://www.w3.org/2000/svg"
   xmlns="http://www.w3.org/2000/svg"
   xmlns:sodipodi="http://sodipodi.sourceforge.net/DTD/sodipodi-0.dtd"
   xmlns:inkscape="http://www.inkscape.org/namespaces/inkscape"
   style="isolation:isolate"
   viewBox="0 0 48 48"
   width="48"
   height="48"
   version="1.1"
   id="svg9"
   sodipodi:docname="korganizer.svg"
   inkscape:version="0.92.4 (5da689c313, 2019-01-14)">
  <metadata
     id="metadata15">
    <rdf:RDF>
      <cc:Work
         rdf:about="">
        <dc:format>image/svg+xml</dc:format>
        <dc:type
           rdf:resource="http://purl.org/dc/dcmitype/StillImage" />
        <dc:title></dc:title>
      </cc:Work>
    </rdf:RDF>
  </metadata>
  <defs
     id="defs13" />
  <sodipodi:namedview
     pagecolor="#ffffff"
     bordercolor="#666666"
     borderopacity="1"
     objecttolerance="10"
     gridtolerance="10"
     guidetolerance="10"
     inkscape:pageopacity="0"
     inkscape:pageshadow="2"
     inkscape:window-width="640"
     inkscape:window-height="480"
     id="namedview11"
     showgrid="false"
     inkscape:zoom="39.153656"
     inkscape:cx="18.994082"
     inkscape:cy="24"
     inkscape:current-layer="svg9" />
  <linearGradient
     id="_lgradient_1"
     x1="0"
     y1="0.5"
     x2="0.90748805"
     y2="0.92007786"
     gradientTransform="matrix(44,0,0,44,2,2)"
     gradientUnits="userSpaceOnUse">
    <stop
       offset="0%"
       stop-opacity="1"
       style="stop-color:rgb(255,65,108)"
       id="stop2" />
    <stop
       offset="84.34782608695653%"
       stop-opacity="1"
       style="stop-color:rgb(255,75,43)"
       id="stop4" />
  </linearGradient>
  <g
     id="g826"
     transform="matrix(1.0909091,0,0,1.0909091,-2.1818184,-2.1818184)">
    <path
       id="path7"
       d="m 8,24 c 0,-1.104 0.896,-2 2,-2 1.104,0 2,0.896 2,2 0,1.104 -0.896,2 -2,2 -1.104,0 -2,-0.896 -2,-2 z m 0,9 c 0,-1.104 0.896,-2 2,-2 1.104,0 2,0.896 2,2 0,1.104 -0.896,2 -2,2 -1.104,0 -2,-0.896 -2,-2 z m 5.235,-21.827 v 0 c 0.327,-0.322 0.854,-0.32 1.178,0.004 v 0 c 0.324,0.324 0.326,0.851 0.004,1.178 v 0 l -4.65,4.644 C 8.792,17.973 8,17.645 8,16.267 v -2.006 0 c 0,-0.46 0.373,-0.833 0.832,-0.833 v 0 c 0.46,0 0.833,0.373 0.833,0.833 v 0 0.491 z M 41.17,42.174 v 0 c 1.01,0 1.83,0.857 1.83,1.913 v 0 C 43,45.143 42.18,46 41.17,46 v 0 H 8.548 C 4.934,46 2,43.066 2,39.452 v -26.93 0 c 0,-1.056 0.82,-1.913 1.83,-1.913 v 0 c 1.01,0 1.83,0.857 1.83,1.913 v 0 26.845 c 0,1.549 1.257,2.807 2.806,2.807 z M 6.83,5.826 v 0 C 5.82,5.826 5,4.969 5,3.913 v 0 C 5,2.857 5.82,2 6.83,2 V 2 H 39.452 C 43.066,2 46,4.934 46,8.548 v 26.93 0 c 0,1.056 -0.82,1.913 -1.83,1.913 v 0 c -1.01,0 -1.83,-0.857 -1.83,-1.913 v 0 -24.974 c 0,-2.582 -2.096,-4.678 -4.677,-4.678 H 6.83 Z m 13.047,6.543 h 17.246 c 1.036,0 1.877,0.841 1.877,1.877 v 0 c 0,1.036 -0.841,1.877 -1.877,1.877 H 19.877 C 18.841,16.123 18,15.282 18,14.246 v 0 c 0,-1.036 0.841,-1.877 1.877,-1.877 z m 0,9.877 h 17.246 c 1.036,0 1.877,0.841 1.877,1.877 v 0 C 39,25.159 38.159,26 37.123,26 H 19.877 C 18.841,26 18,25.159 18,24.123 v 0 c 0,-1.036 0.841,-1.877 1.877,-1.877 z m 0,9 h 17.246 c 1.036,0 1.877,0.841 1.877,1.877 v 0 C 39,34.159 38.159,35 37.123,35 H 19.877 C 18.841,35 18,34.159 18,33.123 v 0 c 0,-1.036 0.841,-1.877 1.877,-1.877 z"
       inkscape:connector-curvature="0"
       style="fill:url(#_lgradient_1);fill-rule:evenodd" />
  </g>
</svg>

<?xml version="1.0" standalone="no"?><!-- Generator: Gravit.io --><svg xmlns="http://www.w3.org/2000/svg" xmlns:xlink="http://www.w3.org/1999/xlink" style="isolation:isolate" viewBox="0 0 48 48" width="48px" height="48px"><linearGradient id="_lgradient_1" x1="0" y1="0.5" x2="0.9074880558539661" y2="0.9200778838291643" gradientTransform="matrix(44,0,0,44,2,2)" gradientUnits="userSpaceOnUse"><stop offset="0%" stop-opacity="1" style="stop-color:rgb(255,65,108)"/><stop offset="84.34782608695653%" stop-opacity="1" style="stop-color:rgb(255,75,43)"/></linearGradient><path d=" M 8 24 C 8 22.896 8.896 22 10 22 C 11.104 22 12 22.896 12 24 C 12 25.104 11.104 26 10 26 C 8.896 26 8 25.104 8 24 L 8 24 L 8 24 L 8 24 L 8 24 L 8 24 L 8 24 Z  M 8 33 C 8 31.896 8.896 31 10 31 C 11.104 31 12 31.896 12 33 C 12 34.104 11.104 35 10 35 C 8.896 35 8 34.104 8 33 L 8 33 L 8 33 L 8 33 L 8 33 L 8 33 L 8 33 Z  M 13.235 11.173 L 13.235 11.173 C 13.562 10.851 14.089 10.853 14.413 11.177 L 14.413 11.177 C 14.737 11.501 14.739 12.028 14.417 12.355 L 14.417 12.355 L 9.767 16.999 C 8.792 17.973 8 17.645 8 16.267 L 8 14.261 L 8 14.261 C 8 13.801 8.373 13.428 8.832 13.428 L 8.832 13.428 C 9.292 13.428 9.665 13.801 9.665 14.261 L 9.665 14.261 L 9.665 14.752 L 13.235 11.173 L 13.235 11.173 L 13.235 11.173 L 13.235 11.173 L 13.235 11.173 L 13.235 11.173 Z  M 41.17 42.174 L 41.17 42.174 C 42.18 42.174 43 43.031 43 44.087 L 43 44.087 C 43 45.143 42.18 46 41.17 46 L 41.17 46 L 8.548 46 C 4.934 46 2 43.066 2 39.452 L 2 12.522 L 2 12.522 C 2 11.466 2.82 10.609 3.83 10.609 L 3.83 10.609 C 4.84 10.609 5.66 11.466 5.66 12.522 L 5.66 12.522 L 5.66 39.367 C 5.66 40.916 6.917 42.174 8.466 42.174 L 41.17 42.174 L 41.17 42.174 L 41.17 42.174 L 41.17 42.174 L 41.17 42.174 Z  M 6.83 5.826 L 6.83 5.826 C 5.82 5.826 5 4.969 5 3.913 L 5 3.913 C 5 2.857 5.82 2 6.83 2 L 6.83 2 L 39.452 2 C 43.066 2 46 4.934 46 8.548 L 46 35.478 L 46 35.478 C 46 36.534 45.18 37.391 44.17 37.391 L 44.17 37.391 C 43.16 37.391 42.34 36.534 42.34 35.478 L 42.34 35.478 L 42.34 10.504 C 42.34 7.922 40.244 5.826 37.663 5.826 L 6.83 5.826 L 6.83 5.826 L 6.83 5.826 L 6.83 5.826 Z  M 19.877 12.369 L 37.123 12.369 C 38.159 12.369 39 13.21 39 14.246 L 39 14.246 C 39 15.282 38.159 16.123 37.123 16.123 L 19.877 16.123 C 18.841 16.123 18 15.282 18 14.246 L 18 14.246 C 18 13.21 18.841 12.369 19.877 12.369 L 19.877 12.369 L 19.877 12.369 Z  M 19.877 22.246 L 37.123 22.246 C 38.159 22.246 39 23.087 39 24.123 L 39 24.123 C 39 25.159 38.159 26 37.123 26 L 19.877 26 C 18.841 26 18 25.159 18 24.123 L 18 24.123 C 18 23.087 18.841 22.246 19.877 22.246 L 19.877 22.246 Z  M 19.877 31.246 L 37.123 31.246 C 38.159 31.246 39 32.087 39 33.123 L 39 33.123 C 39 34.159 38.159 35 37.123 35 L 19.877 35 C 18.841 35 18 34.159 18 33.123 L 18 33.123 C 18 32.087 18.841 31.246 19.877 31.246 Z " fill-rule="evenodd" fill="url(#_lgradient_1)"/></svg>
